!!!!SEGMENT: pl-wnifc--6634-n--006_osmanski-wojciech--6-szampan-mazur.krn
!!!cenid: 18xx:4002
!!!COM: Osmański, Wojciech
!!!COM-rismID: pe30090329
!!!CDT: 1834-1908
!!!CNT:
!!!OTL: 6. Szampan Mazur
!!!PDT:
!!!AGN:
!!!SMS-siglum: PL-Wnifc
!!!SMS-shelfmark: 6634/n
!!!SMS-shelfwork: 006 W
!!!SMS-variant:
!!!SMS-altvar:
!!!NIFC-rismSourceID: 1001148593
!!!NIFC-rismChildID: 1001148602
!!!NIFC-islandoraID: nifc:212915
!!!URL-pdf-islandora: https://repozytorium.nifc.pl/islandora/object/nifc%3A212915/datastream/PDF/view
!!!URL-scan: https://polish.musicsources.pl/pl/lokalizacje/galeria/druki-muzyczne/16872 @EN{Scan on Polish Music Sources Website} @PL{Skany w portalu Dziedzictwo Muzyki Polskiej w otwartym dostępie}
!!!IIIF:
!!!ONB-nifc: UWAGA: str. 11
!!!AIN: 1 violn
!!!key: D
**kern	**fing	**dynam
*I"Violon.	*	*
*I'vl	*	*
*ICstr	*	*
*Ivioln	*	*
*>[A,A1,A,A2,B,B1,B,B2]	*>[A,A1,A,A2,B,B1,B,B2]	*>[A,A1,A,A2,B,B1,B,B2]
*>A	*>A	*>A
*clefG2	*	*
*k[f#c#]	*	*
*D:	*	*
*M3/8	*	*
=1	=1	=1
16.ddu\LL	.	ff
32cc#\JJk	.	.
8dd\L	.	.
8ff#\J	.	.
=2	=2	=2
8aa\L	.	.
8ff#\	.	.
8aa\J	.	.
=3	=3	=3
16.bb\LL	2	.
32ccc#\JJk	.	.
8ddd\L	.	.
8bb\J	.	.
=4	=4	=4
8ff#^\	.	.
8r	.	.
8r	.	.
=5!|:	=5!|:	=5!|:
8gg^u\	2	f
(8qaau/	.	.
16gg\LL)	.	.
16ff#\	.	.
16gg\	.	.
16aa\JJ	.	.
!LO:LB:g=original	!	!
=6	=6	=6
16.ff#\LL	.	.
32aa\JJk	.	.
8ff#\L	.	.
8dd\J	.	.
=7	=7	=7
16.cc#\LL	.	.
32ee\JJk	4	.
8cc#\L	.	.
8a\J	.	.
=8	=8	=8
4dd^\	.	.
(16ff#\LL	.	.
16aa\JJ)	.	.
=9	=9	=9
8gg^u\	2	f
(8qaau/	.	.
16gg\LL)	.	.
16ff#\	.	.
16gg\	.	.
16aa\JJ	.	.
=10	=10	=10
16.ff#\LL	.	.
32aa\JJk	.	.
8ff#\L	.	.
8dd\J	.	.
!LO:LB:g=original	!	!
=11	=11	=11
*>A1	*>A1	*>A1
(16ee\LL	4	.
16dd\	.	.
16b\	.	.
16dd\	.	.
16cc#\	.	.
16b\JJ)	.	.
=12	=12	=12
8a\L	.	<
8qgg#X/	.	.
8aa\	.	.
8aa\J	.	[
=13:|!	=13:|!	=13:|!
*>A2	*>A2	*>A2
16.cc#\LL	.	.
32ee\JJk	4	.
8cc#\L	.	.
8a\J	.	.
=14	=14	=14
8dd\L	4	.
8ddd\J	.	.
!LO:TX:b:i:t=Fine.	!	!
8r	.	.
=15!|:	=15!|:	=15!|:
*>B	*>B	*>B
16.bu\LL	.	p
32dd\JJk	.	.
8ff#\L	.	.
8ff#\J	.	.
=16	=16	=16
!LO:TUP:a:problem:klamra łukowa	!	!
24ee\LL	.	<
24ff#\	.	.
24gg\JJ	.	.
4bb\	.	[[
!LO:LB:g=original	!	!
=17	=17	=17
16ff#\LL	.	p
16gg\JJ	.	.
8ff#\L	.	.
(16cc#\L	.	.
16ee\JJ)	4	.
=18	=18	=18
(8qee/	.	>
16.dd\LL)	.	.
32cc#\JJk	.	.
8dd\L	.	.
8b\J	.	]
=19	=19	=19
!LO:TUP:a:problem:klamra łukowa	!	!
24a\LL	.	f
24b\	.	.
24cc#\JJ	.	.
8a\L	.	.
16cc#\L	.	.
16ee\JJ	4	.
=20	=20	=20
16.dd\LL	.	.
32ff#\JJk	.	.
4aa^\	.	.
=21	=21	=21
16.ee\LL	.	.
32gg#X\JJk	.	.
4aa^\	.	.
!LO:LB:g=original	!	!
=22	=22	=22
16.ff#\LL	.	.
32gg#X\JJk	.	.
4aa^\	.	.
=23	=23	=23
!LO:TUP:a:problem:klamra łukowa	!	!
24cc#\LL	.	ff
24dd\	.	.
24ee\JJ	4	.
16a\LL	.	.
16cc#\	.	.
16ee\	4	.
16cc#\JJ	.	.
=24	=24	=24
!LO:TUP:a:problem:klamra łukowa	!	!
24dd\LL	.	.
24ee\	.	.
24ff#\JJ	.	.
16dd\LL	.	.
16ff#\	.	.
16aa\	.	.
16ff#\JJ	.	.
=25	=25	=25
(16ee\LL	.	.
16gg\	.	.
16bb\	.	.
16aa\	.	.
16gg\	.	.
16ee\JJ)	.	.
=26	=26	=26
8dd\L	1	.
8ddd\J	.	.
8r	.	.
!LO:LB:g=original	!	!
=27||	=27||	=27||
*k[f#]	*	*
!LO:TX:a:B:t=Trio.	!	!
4.r	.	.
=28	=28	=28
4.r	.	.
=29	=29	=29
4.r	.	.
=30	=30	=30
4.r	.	.
=31!|:	=31!|:	=31!|:
(8qd/	.	f
16bu\)	.	.
16r	.	.
8.b^/L	.	>
16g/Jk	.	]]
=32	=32	=32
(8qf#/	.	.
16cc\)	.	.
16r	.	.
8.cc^\L	.	.
16a\Jk	.	.
=33	=33	=33
16.f#/LL	.	<
32a/JJk	.	.
8cc\L	.	.
(8qcc/	.	[
8ee\J)	4	.
=34	=34	=34
4dd\	.	>
8bb\	.	]]
!LO:LB:g=original	!	!
=35	=35	=35
16.aa\LL	.	f
32gg\JJk	.	.
8ee\L	.	.
(16gg\L	.	.
16bb\JJ)	.	.
=36	=36	=36
16.aa\LL	.	.
32ff#\JJk	.	.
8dd\L	.	.
(16ff#\L	.	.
16aa\JJ)	.	.
=37	=37	=37
(16aa\LL	.	.
16gg\	.	.
16ee\	.	.
16gg\	.	.
16bb\	.	.
16cc#X\JJ)	.	.
=38	=38	=38
8dd\L	.	>
8dd\	.	.
8dd\J	.	]
!LO:LB:g=original	!	!
=39	=39	=39
(8qd/	.	f
16bu\)	.	.
16r	.	.
8.b^>/L	.	>
16g/Jk	.	]]
=40	=40	=40
(8qf#/	.	.
16cc\)	.	.
16r	.	.
8.cc^\L	.	.
16a\Jk	.	.
=41	=41	=41
16.f#/LL	.	<
32a/JJk	.	.
8cc\L	.	.
(8qcc/	.	[
8ee\J)	4	.
=42	=42	=42
4dd\	.	>
8bb\	.	]]
=43	=43	=43
16.gg\LL	.	f
32ff#\JJk	.	.
8gg\L	.	.
8ee\J	.	.
!LO:LB:g=original	!	!
=44	=44	=44
8dd\L	.	>
8b\	.	.
8g\J	.	]
=45	=45	=45
*>B1	*>B1	*>B1
16a/LL	.	f
16b/JJ	.	.
8cc#X\L	.	.
8a\J	.	.
=46	=46	=46
8dd/L	.	.
8d/J	.	.
8r	.	.
=47:|!	=47:|!	=47:|!
*>B2	*>B2	*>B2
16a\LL	.	.
16ccn\JJ	.	.
8b/L	.	.
8a/J	.	.
=48	=48	=48
8g/L	.	.
8g/J	.	.
8r	.	.
==	==	==
*-	*-	*-
!!!RDF**kern: > = above
!!!RDF**kern: < = below
!!!ENC: Mateusz Solarz
!!!END: 2022-08-01
!!!ENC: Jan Barakat
!!!END: 2022-08-27
!!!YEC: Copyright 2022 Narodowy Instytut Fryderyka Chopina (https://polishscores.org)
!!!YEM: License CC-BY-4.0 (https://creativecommons.org/licenses/by/4.0)
